img/svg_icons/mark.svg

<svg width="13" height="18" viewBox="0 0 13 18" fill="none" xmlns="http://www.w3.org/2000/svg">
<path fill-rule="evenodd" clip-rule="evenodd" d="M12.4686 3.93215C12.5528 4.1102 12.6424 4.29956 12.6929 4.48003C12.6945 4.48483 12.6989 4.49693 12.7054 4.51505C12.7643 4.67886 13 5.33457 13 5.53606V6.38401C13 7.88264 11.9895 9.39806 10.98 10.9119C10.5991 11.4831 10.2183 12.0541 9.89205 12.6239C9.83266 12.7295 9.73747 12.8392 9.64056 12.9508C9.54639 13.0592 9.4506 13.1695 9.38447 13.2798C9.30269 13.4164 9.2156 13.5555 9.12754 13.6963C8.99885 13.902 8.86807 14.111 8.7487 14.32C8.35019 14.9682 7.94745 15.6304 7.54235 16.2965C7.19746 16.8636 6.85085 17.4335 6.50366 18C6.32766 17.7287 6.15143 17.4573 5.97512 17.1858C4.92491 15.5687 3.87223 13.9478 2.85242 12.304C2.62597 11.9375 2.3838 11.5662 2.13983 11.1922C1.19114 9.7378 0.215024 8.24135 0.0280355 6.81606C0.0115827 6.67202 0 6.38405 0 6.35199V5.58385C0.419348 1.82405 3.56033 0 6.41219 0C8.54253 0 11.1809 0.992 12.3884 3.76001C12.4135 3.81567 12.4407 3.87329 12.4686 3.93215ZM4.25611 6.83181C4.70902 7.93601 5.6266 8.33584 6.46491 8.33584C7.80692 8.33584 8.91715 7.31203 8.91715 6.03198C8.91715 4.75189 7.87923 3.72775 6.53721 3.72775C5.44712 3.72775 4.19407 4.36788 4.19407 5.77553V6.27153C4.19407 6.2731 4.19406 6.27542 4.19405 6.27844C4.19372 6.33759 4.19191 6.66458 4.25611 6.83181Z" fill="black"/>
</svg>

<svg width="13" height="18" fill="none" xmlns="http://www.w3.org/2000/svg"><path fill-rule="evenodd" clip-rule="evenodd" d="M12.469 3.932c.084.178.173.368.224.548l.012.035c.06.164.295.82.295 1.021v.848c0 1.499-1.01 3.014-2.02 4.528-.38.571-.762 1.142-1.088 1.712-.06.105-.155.215-.251.327a2.49 2.49 0 00-.257.329c-.081.136-.168.276-.256.416-.13.206-.26.415-.38.624-.398.648-.8 1.31-1.206 1.977-.345.567-.691 1.136-1.038 1.703l-.529-.814c-1.05-1.617-2.103-3.238-3.123-4.882a54.308 54.308 0 00-.712-1.112C1.19 9.738.215 8.242.028 6.816A7.206 7.206 0 010 6.352v-.768C.42 1.824 3.56 0 6.412 0c2.13 0 4.769.992 5.976 3.76l.08.172zm-8.213 2.9c.453 1.104 1.37 1.504 2.209 1.504 1.342 0 2.452-1.024 2.452-2.304 0-1.28-1.038-2.304-2.38-2.304-1.09 0-2.343.64-2.343 2.048v.502c0 .06-.002.387.062.554z" fill="#000"/></svg>
